svg/weather/wind_line.svg

<?xml version="1.0" encoding="UTF-8"?>
<svg width="24px" height="24px" viewBox="0 0 24 24" version="1.1" xmlns="http://www.w3.org/2000/svg" xmlns:xlink="http://www.w3.org/1999/xlink">
    <title>wind_line</title>
    <g id="页面-1" stroke="none" stroke-width="1" fill="none" fill-rule="evenodd">
        <g id="Weather" transform="translate(-432.000000, 0.000000)">
            <g id="wind_line" transform="translate(432.000000, 0.000000)">
                 <path d="M24,0 L24,24 L0,24 L0,0 L24,0 Z M12.5934901,23.257841 L12.5819402,23.2595131 L12.5108777,23.2950439 L12.4918791,23.2987469 L12.4918791,23.2987469 L12.4767152,23.2950439 L12.4056548,23.2595131 C12.3958229,23.2563662 12.3870493,23.2590235 12.3821421,23.2649074 L12.3780323,23.275831 L12.360941,23.7031097 L12.3658947,23.7234994 L12.3769048,23.7357139 L12.4804777,23.8096931 L12.4953491,23.8136134 L12.4953491,23.8136134 L12.5071152,23.8096931 L12.6106902,23.7357139 L12.6232938,23.7196733 L12.6232938,23.7196733 L12.6266527,23.7031097 L12.609561,23.275831 C12.6075724,23.2657013 12.6010112,23.2592993 12.5934901,23.257841 L12.5934901,23.257841 Z M12.8583906,23.1452862 L12.8445485,23.1473072 L12.6598443,23.2396597 L12.6498822,23.2499052 L12.6498822,23.2499052 L12.6471943,23.2611114 L12.6650943,23.6906389 L12.6699349,23.7034178 L12.6699349,23.7034178 L12.678386,23.7104931 L12.8793402,23.8032389 C12.8914285,23.8068999 12.9022333,23.8029875 12.9078286,23.7952264 L12.9118235,23.7811639 L12.8776777,23.1665331 C12.8752882,23.1545897 12.8674102,23.1470016 12.8583906,23.1452862 L12.8583906,23.1452862 Z M12.1430473,23.1473072 C12.1332178,23.1423925 12.1221763,23.1452606 12.1156365,23.1525954 L12.1099173,23.1665331 L12.0757714,23.7811639 C12.0751323,23.7926639 12.0828099,23.8018602 12.0926481,23.8045676 L12.108256,23.8032389 L12.3092106,23.7104931 L12.3186497,23.7024347 L12.3186497,23.7024347 L12.3225043,23.6906389 L12.340401,23.2611114 L12.337245,23.2485176 L12.337245,23.2485176 L12.3277531,23.2396597 L12.1430473,23.1473072 Z" id="MingCute" fill-rule="nonzero"></path>
                <path d="M10.5,4 C9.77548,4 9.16892,4.51468 9.03002,5.19893 C8.92015,5.74018 8.39232,6.08988 7.85108,5.98001 C7.30983,5.87015 6.96013,5.34231 7.07,4.80107 C7.39437,3.20308 8.80557,2 10.5,2 C12.433,2 14,3.567 14,5.5 C14,7.433 12.433,9 10.5,9 L5,9 C4.44772,9 4,8.55228 4,8 C4,7.44772 4.44772,7 5,7 L10.5,7 C11.3284,7 12,6.32843 12,5.5 C12,4.67157 11.3284,4 10.5,4 Z M18.5,8 C17.7755,8 17.1689,8.51468 17.03,9.19893 C16.9202,9.74018 16.3923,10.0899 15.8511,9.98001 C15.3098,9.87015 14.9601,9.34231 15.07,8.80107 C15.3944,7.20308 16.8056,6 18.5,6 C20.433,6 22,7.567 22,9.5 C22,11.433 20.433,13 18.5,13 L3,13 C2.44772,13 2,12.5523 2,12 C2,11.4477 2.44772,11 3,11 L18.5,11 C19.3284,11 20,10.3284 20,9.5 C20,8.67157 19.3284,8 18.5,8 Z M13.03,18.8011 C13.1689,19.4853 13.7755,20 14.5,20 C15.3284,20 16,19.3284 16,18.5 C16,17.6716 15.3284,17 14.5,17 L8,17 C7.44772,17 7,16.5523 7,16 C7,15.4477 7.44772,15 8,15 L14.5,15 C16.433,15 18,16.567 18,18.5 C18,20.433 16.433,22 14.5,22 C12.8056,22 11.3944,20.7969 11.07,19.1989 C10.9601,18.6577 11.3098,18.1299 11.8511,18.02 C12.3923,17.9101 12.9202,18.2598 13.03,18.8011 Z" id="形状" fill="#09244B"></path>
            </g>
        </g>
    </g>
</svg>

<svg xmlns="http://www.w3.org/2000/svg" width="24" height="24"><g fill="none" fill-rule="evenodd"><path d="M24 0v24H0V0h24ZM12.593 23.258l-.011.002-.071.035-.02.004-.014-.004-.071-.035c-.01-.004-.019-.001-.024.005l-.004.01-.017.428.005.02.01.013.104.074.015.004.012-.004.104-.074.012-.016.004-.017-.017-.427c-.002-.01-.009-.017-.017-.018Zm.265-.113-.013.002-.185.093-.01.01-.003.011.018.43.005.012.008.007.201.093c.012.004.023 0 .029-.008l.004-.014-.034-.614c-.003-.012-.01-.02-.02-.022Zm-.715.002a.023.023 0 0 0-.027.006l-.006.014-.034.614c0 .012.007.02.017.024l.015-.002.201-.093.01-.008.004-.011.017-.43-.003-.012-.01-.01-.184-.092Z"/><path fill="#09244B" d="M10.5 4a1.5 1.5 0 0 0-1.47 1.199A1 1 0 1 1 7.07 4.8 3.5 3.5 0 1 1 10.5 9H5a1 1 0 0 1 0-2h5.5a1.5 1.5 0 0 0 0-3Zm8 4a1.5 1.5 0 0 0-1.47 1.199 1 1 0 1 1-1.96-.398A3.5 3.5 0 1 1 18.5 13H3a1 1 0 1 1 0-2h15.5a1.5 1.5 0 0 0 0-3Zm-5.47 10.801A1.5 1.5 0 1 0 14.5 17H8a1 1 0 1 1 0-2h6.5a3.5 3.5 0 1 1-3.43 4.199 1 1 0 1 1 1.96-.398Z"/></g></svg>
